X:131
T:Bricks and Mortar
C:Traditional English?
S:Colin Hume's website,  colinhume.com  - chords can also be printed below the stave.
Q:1/2=102
M:2/2
R:Reel
K:G
P:A
"G"G2B2 B2d2 | "D7"c2A2 A2c2 | "Em"B2G2 G2B2 | "D"A2d2 "D7"dcBA |\
"G"G2B2 B2d2 | "D7"c2A2 A2c2 | "Em"B2G2 "D7"A2F2 | "G"G4 G4 :|
P:B
|: "G"g2f2 e2d2 | "C"c2B2 A2G2 | "G"G2B2 "Em"d3B | "Am"c2A2 "D7"A4 |\
"G"g2f2 e2d2 | "C"c2B2 A2G2 | "G"G2B2 "D7"d3c | "G"B2G2 G4 :|

